icons/animal_tick.svg

<svg width="48" height="48" viewBox="0 0 48 48" fill="none" xmlns="http://www.w3.org/2000/svg">
<path fill-rule="evenodd" clip-rule="evenodd" d="M19.5722 10.283C19.1762 9.89802 18.5431 9.90694 18.1581 10.3029L15.1581 13.3886C14.811 13.7457 14.7795 14.3037 15.0841 14.6975C15.8283 15.6597 16.5471 16.372 17.458 16.8728C18.0044 17.1731 18.5901 17.3808 19.2436 17.5344C18.8741 18.0086 18.5256 18.5257 18.2015 19.0737L15.3518 17.9897L14.169 15.2342C13.9512 14.7267 13.3632 14.4918 12.8557 14.7097C12.3482 14.9275 12.1133 15.5155 12.3312 16.023L13.6812 19.1681C13.788 19.4171 13.9913 19.612 14.2446 19.7083L17.277 20.8618C17.2287 20.969 17.1813 21.0768 17.1348 21.1851C16.9033 21.7242 16.6913 22.2831 16.5024 22.855L13.7543 21.8097L11.8318 18.9304C11.5251 18.471 10.9041 18.3473 10.4448 18.654C9.9855 18.9607 9.86177 19.5817 10.1685 20.041L12.2685 23.186C12.3839 23.3589 12.5503 23.4915 12.7446 23.5654L15.9643 24.7901C15.909 25.0345 15.8582 25.2798 15.8121 25.5257C15.7841 25.5367 15.7502 25.5503 15.7108 25.5664C15.5969 25.6129 15.4372 25.6806 15.2467 25.7681C14.8684 25.942 14.3563 26.1995 13.8374 26.5304C13.325 26.8572 12.7659 27.2806 12.3252 27.7974C11.886 28.3124 11.5001 28.9977 11.5001 29.8228C11.5001 31.0274 11.9383 32.3529 12.3233 33.3033C12.5221 33.7942 12.7205 34.2174 12.8693 34.5185C12.9439 34.6694 13.0065 34.7905 13.0512 34.8752C13.0735 34.9176 13.0914 34.9509 13.1041 34.9743L13.1192 35.002L13.1237 35.01L13.1251 35.0126L13.1256 35.0135C13.3938 35.4963 14.003 35.6709 14.4857 35.4027C14.9684 35.1346 15.1424 34.5261 14.8745 34.0434L14.8724 34.0395L14.8624 34.0211C14.8531 34.004 14.8388 33.9774 14.8201 33.942C14.7828 33.8712 14.7282 33.7657 14.6622 33.6322C14.5297 33.3643 14.3531 32.9871 14.1769 32.5524C13.8119 31.6513 13.5001 30.6239 13.5001 29.8228C13.5001 29.6451 13.583 29.4047 13.8469 29.0952C14.1093 28.7875 14.4877 28.4877 14.9128 28.2167C15.1195 28.0848 15.3279 27.9657 15.525 27.8609C15.5086 28.1565 15.5001 28.4508 15.5001 28.7429C15.5001 35.1562 19.6216 39 24.0001 39C28.3786 39 32.5001 35.1562 32.5001 28.7429C32.5001 28.4508 32.4917 28.1565 32.4752 27.8609C32.6723 27.9657 32.8807 28.0848 33.0874 28.2167C33.5125 28.4877 33.8909 28.7875 34.1533 29.0952C34.4172 29.4047 34.5001 29.6451 34.5001 29.8228C34.5001 30.6239 34.1883 31.6513 33.8233 32.5524C33.6471 32.9871 33.4705 33.3643 33.338 33.6322C33.272 33.7657 33.2174 33.8712 33.1801 33.942C33.1778 33.9464 33.1755 33.9507 33.1733 33.9548C33.1579 33.9839 33.1459 34.0062 33.1378 34.0211L33.1278 34.0395L33.1257 34.0434C32.8578 34.5261 33.0318 35.1346 33.5145 35.4027C33.9972 35.6709 34.6064 35.4963 34.8746 35.0135L34.8751 35.0126L34.8766 35.01L34.881 35.002L34.8961 34.9743C34.9088 34.9509 34.9267 34.9176 34.949 34.8752C34.9937 34.7905 35.0563 34.6694 35.1309 34.5185C35.2797 34.2174 35.4781 33.7942 35.6769 33.3033C36.0619 32.3529 36.5001 31.0274 36.5001 29.8228C36.5001 28.9977 36.1142 28.3124 35.675 27.7974C35.2343 27.2806 34.6752 26.8572 34.1628 26.5304C33.6439 26.1995 33.1318 25.942 32.7535 25.7681C32.5631 25.6806 32.4033 25.6129 32.2894 25.5664C32.2501 25.5503 32.2161 25.5367 32.1881 25.5257C32.142 25.2798 32.0912 25.0345 32.0359 24.7901L35.2556 23.5654C35.4499 23.4915 35.6163 23.3589 35.7318 23.186L37.8318 20.041C38.1384 19.5817 38.0147 18.9607 37.5554 18.654C37.0961 18.3473 36.4751 18.471 36.1685 18.9304L34.2459 21.8097L31.4978 22.855C31.3089 22.2831 31.0969 21.7242 30.8654 21.1851C30.8189 21.0768 30.7715 20.969 30.7232 20.8618L33.7556 19.7083C34.0089 19.612 34.2122 19.4171 34.319 19.1681L35.669 16.023C35.8869 15.5155 35.6521 14.9275 35.1445 14.7097C34.637 14.4918 34.049 14.7267 33.8312 15.2342L32.6484 17.9897L29.7987 19.0737C29.4746 18.5257 29.1262 18.0086 28.7566 17.5344C29.4101 17.3808 29.9959 17.1731 30.5422 16.8728C31.4531 16.372 32.1719 15.6597 32.9161 14.6975C33.2208 14.3037 33.1892 13.7457 32.8421 13.3886L29.8421 10.3029C29.4571 9.90694 28.824 9.89802 28.428 10.283C28.032 10.668 28.0231 11.3011 28.4081 11.6971L30.7806 14.1373C30.3633 14.5933 29.985 14.8968 29.5788 15.1201C29.0098 15.4328 28.3077 15.6316 27.2136 15.7816C27.1176 14.9738 26.8345 14.226 26.3991 13.6288C25.855 12.8826 25.019 12.3142 24.0001 12.3142C22.9812 12.3142 22.1452 12.8826 21.6011 13.6288C21.1657 14.226 20.8826 14.9738 20.7866 15.7816C19.6925 15.6316 18.9904 15.4328 18.4214 15.1201C18.0152 14.8968 17.6369 14.5933 17.2197 14.1373L19.5921 11.6971C19.9771 11.3011 19.9682 10.668 19.5722 10.283ZM34.0001 34.5285C34.8743 35.0142 34.8746 35.0135 34.8746 35.0135L34.0001 34.5285ZM14.0001 34.5285L13.1256 35.0135C13.1256 35.0135 13.1259 35.0142 14.0001 34.5285ZM23.2171 14.8072C22.9475 15.1769 22.7501 15.7368 22.7501 16.3999L22.7503 16.4361L22.756 16.9573L22.332 17.2604C21.1103 18.134 19.8908 19.8359 18.9725 21.9742C18.0624 24.0937 17.5001 26.5228 17.5001 28.7429C17.5001 34.259 20.9227 37 24.0001 37C27.0775 37 30.5001 34.259 30.5001 28.7429C30.5001 26.5228 29.9378 24.0937 29.0277 21.9742C28.1094 19.8359 26.8899 18.134 25.6682 17.2604L25.2442 16.9573L25.2499 16.4361L25.2501 16.3999C25.2501 15.7368 25.0527 15.1769 24.7831 14.8072C24.5128 14.4366 24.2238 14.3142 24.0001 14.3142C23.7764 14.3142 23.4874 14.4366 23.2171 14.8072Z" fill="black"/>
</svg>

<svg
  xmlns="http://www.w3.org/2000/svg"
  width="24"
  height="24"
  viewBox="0 0 24 24"
  fill="none"
  stroke="currentColor"
  stroke-width="2"
  stroke-linecap="round"
  stroke-linejoin="round"
>
  <path
    fill-rule="evenodd"
    d="M19.572 10.283a1 1 0 0 0-1.414.02l-3 3.086a1 1 0 0 0-.074 1.309c.744.962 1.463 1.674 2.374 2.175.546.3 1.132.508 1.786.661-.37.475-.718.992-1.043 1.54l-2.85-1.084-1.182-2.756a1 1 0 1 0-1.838.789l1.35 3.145a1 1 0 0 0 .564.54l3.032 1.154-.142.323q-.349.811-.633 1.67l-2.748-1.045-1.922-2.88a1 1 0 1 0-1.664 1.111l2.1 3.145a1 1 0 0 0 .477.38l3.22 1.224q-.084.367-.153.736l-.101.04a11.929 11.929 0 0 0-1.873.964c-.513.327-1.072.75-1.513 1.267-.439.515-.825 1.2-.825 2.026 0 1.204.438 2.53.823 3.48a18 18 0 0 0 .781 1.671l.015.028.005.008.001.003a1 1 0 0 0 1.75-.97l-.003-.004-.01-.018-.042-.079a16.197 16.197 0 0 1-.643-1.39c-.365-.9-.677-1.928-.677-2.73 0-.177.083-.417.347-.727.262-.307.64-.607 1.066-.878a9 9 0 0 1 .612-.356q-.024.444-.025.882C15.5 35.156 19.622 39 24 39s8.5-3.844 8.5-10.257q0-.438-.025-.882c.197.105.406.224.612.356.425.27.804.57 1.066.878.264.31.347.55.347.728 0 .8-.312 1.828-.677 2.73a16 16 0 0 1-.685 1.468l-.01.018-.002.004a1 1 0 1 0 1.749.97l.002-.003.004-.008.015-.028.053-.099a18.172 18.172 0 0 0 .728-1.572c.385-.95.823-2.276.823-3.48 0-.825-.386-1.51-.825-2.026-.44-.516-1-.94-1.512-1.267a12 12 0 0 0-1.975-1.004 20 20 0 0 0-.152-.736l3.22-1.225a1 1 0 0 0 .476-.379l2.1-3.145a1 1 0 0 0-1.663-1.11l-1.923 2.879-2.748 1.045a21 21 0 0 0-.775-1.993l3.033-1.154a1 1 0 0 0 .563-.54l1.35-3.145a1 1 0 1 0-1.838-.789l-1.183 2.756-2.85 1.084a15 15 0 0 0-1.041-1.54 7 7 0 0 0 1.785-.661c.911-.501 1.63-1.213 2.374-2.176a1 1 0 0 0-.074-1.308l-3-3.086a1 1 0 0 0-1.434 1.394l2.373 2.44c-.418.456-.796.76-1.202.983-.57.313-1.271.512-2.365.662-.096-.808-.38-1.556-.815-2.153-.544-.746-1.38-1.315-2.399-1.315s-1.855.569-2.399 1.315c-.435.597-.718 1.345-.814 2.153-1.094-.15-1.797-.35-2.366-.662-.406-.223-.784-.527-1.201-.983l2.372-2.44a1 1 0 0 0-.02-1.414M34 34.529c.874.485.875.484.875.484zm-20 0-.874.484zm9.217-19.722c-.27.37-.467.93-.467 1.593v.036l.006.521-.424.303c-1.222.874-2.441 2.576-3.36 4.714-.91 2.12-1.472 4.549-1.472 6.769C17.5 34.259 20.923 37 24 37s6.5-2.741 6.5-8.257c0-2.22-.562-4.65-1.472-6.769-.919-2.138-2.138-3.84-3.36-4.714l-.424-.303.006-.52V16.4c0-.663-.197-1.223-.467-1.593s-.56-.493-.783-.493c-.224 0-.513.123-.783.493"
    clip-rule="evenodd"
  />
</svg>
